icons/contacts-book-line.svg

<svg xmlns="http://www.w3.org/2000/svg" width="24" height="24" fill="none"><g clip-path="url(#a)"><g><path fill="#121212" d="M3 2H19.005C20.107 2 21 2.898 21 3.99V20.01C21 21.109 20.107 22 19.005 22H3V2ZM7 4H5V20H7V4ZM9 20H19V4H9V20ZM11 16C11 15.2044 11.3161 14.4413 11.8787 13.8787C12.4413 13.3161 13.2044 13 14 13C14.7956 13 15.5587 13.3161 16.1213 13.8787C16.6839 14.4413 17 15.2044 17 16H11ZM14 12C13.4696 12 12.9609 11.7893 12.5858 11.4142C12.2107 11.0391 12 10.5304 12 10C12 9.46957 12.2107 8.96086 12.5858 8.58579C12.9609 8.21071 13.4696 8 14 8C14.5304 8 15.0391 8.21071 15.4142 8.58579C15.7893 8.96086 16 9.46957 16 10C16 10.5304 15.7893 11.0391 15.4142 11.4142C15.0391 11.7893 14.5304 12 14 12ZM22 6H24V10H22V6ZM22 12H24V16H22V12Z"/></g></g><defs><clipPath id="a"><rect width="24" height="24" fill="white"/></clipPath></defs></svg>

<svg width="24" height="24" fill="none" xmlns="http://www.w3.org/2000/svg"><g clip-path="url(#a)"><path d="M3 2h16.005C20.107 2 21 2.898 21 3.99v16.02c0 1.099-.893 1.99-1.995 1.99H3V2Zm4 2H5v16h2V4Zm2 16h10V4H9v16Zm2-4a3 3 0 0 1 6 0h-6Zm3-4a2 2 0 1 1 0-4 2 2 0 0 1 0 4Zm8-6h2v4h-2V6Zm0 6h2v4h-2v-4Z" /></g><defs><clipPath id="a"><path fill="#fff" d="M0 0h24v24H0z"/></clipPath></defs></svg>
